X: 41370
T: Tuskar Rock
R: reel
M: 4/4
K: Amajor
|:B/c/d|edce dcBG|A/B/A GB AGEF|=G/A/G FA GABc|dBeB dcBA|
[1cBAc BAGB|EAAG ABcd|e/f/e ce dcBG|A/B/A GB A2:|
[2 cA A/B/A BAGB|EA B/A/G ABcd|e/f/e ce dcBG|A/B/A GB A2||
|:B/c/d|ea a/b/a abag|ea a/a/a edB=c|d=ggf g2 B/c/d|b/a/=g af gbfg|
ea b/a/g abag|ea a/a/a eaca|ef=gb afge|dBGB A2:|

